include/LD/assets/icons/standard/calibration.svg

<?xml version="1.0"?><svg xmlns="http://www.w3.org/2000/svg" width="100" height="100" viewBox="0 0 100 100"><path fill="#fff" d="m31.9 49.7c-0.6 0.1-1.2 0.1-1.9 0.1-0.6 0-1.2 0-1.9-0.1-0.6-0.1-1.1 0.4-1.1 1v27.3c0 1.1 0.9 2 2 2h2c1.1 0 2-0.9 2-2v-27.3c0-0.7-0.5-1.1-1.1-1z m20 21c-0.6 0.1-1.2 0.1-1.9 0.1-0.6 0-1.2 0-1.9-0.1-0.6-0.1-1.1 0.4-1.1 1v6.3c0 1.1 0.9 2 2 2h2c1.1 0 2-0.9 2-2v-6.3c0-0.7-0.5-1.1-1.1-1z m20-15c-0.6 0.1-1.2 0.1-1.9 0.1-0.6 0-1.2 0-1.9-0.1-0.6-0.1-1.1 0.4-1.1 1v21.3c0 1.1 0.9 2 2 2h2c1.1 0 2-0.9 2-2v-21.3c0-0.7-0.5-1.1-1.1-1z m-38.9-25v-8.7c0-1.1-0.9-2-2-2h-2c-1.1 0-2 0.9-2 2v8.7c-2.4 1.1-4 3.5-4 6.3 0 3.9 3.1 7 7 7s7-3.1 7-7c0-2.8-1.6-5.2-4-6.3z m20 21v-29.7c0-1.1-0.9-2-2-2h-2c-1.1 0-2 0.9-2 2v29.7c-2.4 1.1-4 3.5-4 6.3 0 3.9 3.1 7 7 7s7-3.1 7-7c0-2.8-1.6-5.2-4-6.3z m20-15v-14.7c0-1.1-0.9-2-2-2h-2c-1.1 0-2 0.9-2 2v14.7c-2.4 1.1-4 3.5-4 6.3 0 3.9 3.1 7 7 7s7-3.1 7-7c0-2.8-1.6-5.2-4-6.3z"></path></svg>

<svg xmlns="http://www.w3.org/2000/svg" x="0px" y="0px" width="100" height="100"
	 viewBox="0 0 100 100" style="enable-background:new 0 0 100 100;" xml:space="preserve">

<g>
	<g>
		<path fill="#FFFFFF" d="M31.9,49.7c-0.6,0.1-1.2,0.1-1.9,0.1c-0.6,0-1.2,0-1.9-0.1c-0.6-0.1-1.1,0.4-1.1,1V78c0,1.1,0.9,2,2,2h2
			c1.1,0,2-0.9,2-2V50.7C33,50,32.5,49.6,31.9,49.7z"/>
	</g>
	<g>
		<path fill="#FFFFFF" d="M51.9,70.7c-0.6,0.1-1.2,0.1-1.9,0.1c-0.6,0-1.2,0-1.9-0.1c-0.6-0.1-1.1,0.4-1.1,1V78c0,1.1,0.9,2,2,2h2
			c1.1,0,2-0.9,2-2v-6.3C53,71,52.5,70.6,51.9,70.7z"/>
	</g>
	<g>
		<path fill="#FFFFFF" d="M71.9,55.7c-0.6,0.1-1.2,0.1-1.9,0.1c-0.6,0-1.2,0-1.9-0.1c-0.6-0.1-1.1,0.4-1.1,1V78c0,1.1,0.9,2,2,2h2
			c1.1,0,2-0.9,2-2V56.7C73,56,72.5,55.6,71.9,55.7z"/>
	</g>
	<g>
		<path fill="#FFFFFF" d="M33,30.7V22c0-1.1-0.9-2-2-2h-2c-1.1,0-2,0.9-2,2v8.7c-2.4,1.1-4,3.5-4,6.3c0,3.9,3.1,7,7,7s7-3.1,7-7
			C37,34.2,35.4,31.8,33,30.7z"/>
	</g>
	<g>
		<path fill="#FFFFFF" d="M53,51.7V22c0-1.1-0.9-2-2-2h-2c-1.1,0-2,0.9-2,2v29.7c-2.4,1.1-4,3.5-4,6.3c0,3.9,3.1,7,7,7s7-3.1,7-7
			C57,55.2,55.4,52.8,53,51.7z"/>
	</g>
	<g>
		<path fill="#FFFFFF" d="M73,36.7V22c0-1.1-0.9-2-2-2h-2c-1.1,0-2,0.9-2,2v14.7c-2.4,1.1-4,3.5-4,6.3c0,3.9,3.1,7,7,7s7-3.1,7-7
			C77,40.2,75.4,37.8,73,36.7z"/>
	</g>
</g>
</svg>
